assets/images/ico_link_13.svg

<svg width="15" height="14" viewBox="0 0 15 14" fill="none" xmlns="http://www.w3.org/2000/svg">
<path d="M13.9985 8.73334V11.1786C13.9985 11.7943 13.7539 12.3847 13.3185 12.82C12.8832 13.2554 12.2929 13.5 11.6771 13.5H3.31996C2.70419 13.5 2.11388 13.2554 1.67851 12.82C1.24315 12.3847 0.998535 11.7943 0.998535 11.1786V2.82144C0.998535 2.20566 1.24315 1.61536 1.67851 1.17999C2.11388 0.744622 2.70419 0.50001 3.31996 0.50001H5.7652C5.93101 0.50001 6.08436 0.588622 6.1674 0.732152C6.25044 0.875683 6.25018 1.05291 6.1674 1.19644C6.08463 1.33997 5.93128 1.42858 5.7652 1.42858H3.31996C2.95039 1.42858 2.59621 1.57529 2.33515 1.83662C2.07409 2.09795 1.92711 2.45213 1.92711 2.82144V11.1786C1.92711 11.5481 2.07382 11.9023 2.33515 12.1634C2.59647 12.4244 2.95066 12.5714 3.31996 12.5714H11.6771C12.0467 12.5714 12.4009 12.4247 12.6622 12.1634C12.9232 11.9021 13.0702 11.5479 13.0702 11.1786V8.73334C13.0702 8.56752 13.1588 8.41417 13.3024 8.33113C13.4459 8.24809 13.6231 8.24836 13.7666 8.33113C13.9102 8.41391 13.9985 8.56726 13.9985 8.73334ZM9.41758 1.42858H12.4152L7.16876 6.67023C7.08094 6.75752 7.03133 6.87611 7.03133 7.00001C7.03133 7.1239 7.08067 7.24249 7.16876 7.32978C7.25604 7.4176 7.37463 7.46721 7.49853 7.46721C7.62243 7.46721 7.74102 7.41786 7.82831 7.32978L13.07 2.08787V5.08096C13.07 5.20406 13.1188 5.32212 13.2058 5.40941C13.2928 5.49669 13.4109 5.54524 13.5342 5.54524C13.6576 5.54524 13.7754 5.49643 13.8627 5.40941C13.95 5.32239 13.9985 5.20433 13.9985 5.08096V0.964295C13.9993 0.840928 13.9508 0.722336 13.864 0.63452C13.7762 0.547765 13.6576 0.499214 13.5342 0.50001H9.41758C9.25176 0.50001 9.09841 0.588622 9.01537 0.732152C8.93233 0.875683 8.9326 1.05291 9.01537 1.19644C9.09815 1.33997 9.2515 1.42858 9.41758 1.42858Z" fill="white" stroke="white" stroke-width="0.2"/>
</svg>

<svg xmlns="http://www.w3.org/2000/svg" width="15" height="14" fill="none"><path fill="#fff" stroke="#fff" stroke-width=".2" d="M13.998 8.733v2.446a2.32 2.32 0 0 1-2.32 2.321H3.32a2.321 2.321 0 0 1-2.321-2.321V2.82A2.321 2.321 0 0 1 3.32.5h2.445a.465.465 0 0 1 0 .929H3.32A1.392 1.392 0 0 0 1.927 2.82v8.358A1.392 1.392 0 0 0 3.32 12.57h8.357a1.393 1.393 0 0 0 1.393-1.392V8.733a.465.465 0 0 1 .928 0ZM9.418 1.43h2.997L7.17 6.67a.465.465 0 0 0 .33.797c.123 0 .242-.05.33-.137l5.241-5.242V5.08a.465.465 0 0 0 .928 0V.964a.465.465 0 0 0-.134-.33.465.465 0 0 0-.33-.134H9.418a.465.465 0 0 0 0 .929Z"/></svg>
